img/dark/savetable.svg

<svg xmlns="http://www.w3.org/2000/svg" viewBox="0 0 32 32"><path fill="#b2b2b2" d="M 4 4 L 4 28 L 9 28 L 23 28 L 28 28 L 28 10 L 27 9 L 23 5 L 22 4 L 21 4 L 10 4 L 4 4 z M 5 5 L 10 5 L 10 13 L 21 13 L 21 5 L 21.585938 5 L 27 10.414062 L 27 27 L 23 27 L 23 19 L 9 19 L 9 27 L 5 27 L 5 5 z M 11 5 L 17 5 L 17 12 L 11 12 L 11 5 z M 10 20 L 22 20 L 22 27 L 10 27 L 10 20 z"/><path fill="#27ae60" d="M 16,16 V 29 H 29 V 16 Z m 0.542,0.542 h 3.792 v 1.083 h -3.792 z m 4.333,0 h 3.25 v 1.083 H 20.875 Z m 3.792,0 h 3.792 v 1.083 h -3.792 z m -8.125,1.625 h 3.792 v 1.625 h -3.792 z m 4.333,0 h 3.25 v 1.625 H 20.875 Z m 3.792,0 h 3.792 v 1.625 h -3.792 z m -8.125,2.167 h 3.792 v 1.625 h -3.792 z m 4.333,0 h 3.25 v 1.625 H 20.875 Z m 3.792,0 h 3.792 v 1.625 h -3.792 z m -8.125,2.167 h 3.792 v 1.625 h -3.792 z m 4.333,0 h 3.25 v 1.625 H 20.875 Z m 3.792,0 h 3.792 v 1.625 h -3.792 z m -8.125,2.167 h 3.792 v 1.625 h -3.792 z m 4.333,0 h 3.25 v 1.625 H 20.875 Z m 3.792,0 h 3.792 v 1.625 h -3.792 z m -8.125,2.167 h 3.792 v 1.625 h -3.792 z m 4.333,0 h 3.25 v 1.625 H 20.875 Z m 3.792,0 h 3.792 v 1.625 h -3.792 z"/></svg>

<svg version="1.1" viewBox="0 0 32 32" xmlns="http://www.w3.org/2000/svg" fill="#b2b2b2">
    <path d="m4 4v24h5 14 5v-18l-6-6h-1-11-6zm1 1h5v8h11v-8h0.586l5.41 5.41v16.6h-4v-8h-14v8h-4v-22zm6 0h6v7h-6v-7zm-1 15h12v7h-12v-7z"/>
    <path d="m16 16v13h13v-13zm0.55 0.55h3.8v1.1h-3.8zm4.3 0h3.25v1.1h-3.25zm3.8 0h3.8v1.1h-3.8zm-8.1 1.6h3.8v1.6h-3.8zm4.3 0h3.25v1.6h-3.25zm3.8 0h3.8v1.6h-3.8zm-8.1 2.2h3.8v1.6h-3.8zm4.3 0h3.25v1.6h-3.25zm3.8 0h3.8v1.6h-3.8zm-8.1 2.2h3.8v1.6h-3.8zm4.3 0h3.25v1.6h-3.25zm3.8 0h3.8v1.6h-3.8zm-8.1 2.2h3.8v1.6h-3.8zm4.3 0h3.25v1.6h-3.25zm3.8 0h3.8v1.6h-3.8zm-8.1 2.2h3.8v1.6h-3.8zm4.3 0h3.25v1.6h-3.25zm3.8 0h3.8v1.6h-3.8z" fill="#27ae60"/>
</svg>
